X: 12030
T: Eric's
R: jig
M: 6/8
K: Bminor
|:BBB BAF|EFA BAF|dcA B2 F|EFA cBA|
BBB BAF|EFA BAF|dBc BAF|EFA B2 A:|
|:GBG cdB|AcA edc|^GBG cdB|zAB BAF|GBG cdB|
A2 A edc|1 ^GBG cde-|ede cdB:|2 GBG cde-|ez2 z3||

